svg/fluentui-system-icons/ic_fluent_people_list_28_filled.svg

<svg width="28" height="28" viewBox="0 0 28 28" fill="none" xmlns="http://www.w3.org/2000/svg">
<path d="M9.5 14C11.9853 14 14 11.9853 14 9.5C14 7.01472 11.9853 5 9.5 5C7.01472 5 5 7.01472 5 9.5C5 11.9853 7.01472 14 9.5 14ZM23.5 10.5C23.5 12.433 21.933 14 20 14C18.067 14 16.5 12.433 16.5 10.5C16.5 8.567 18.067 7 20 7C21.933 7 23.5 8.567 23.5 10.5ZM2 18.25C2 17.0074 3.00736 16 4.25 16H14.75C14.9861 16 15.2137 16.0364 15.4276 16.1038C15.1612 16.4109 15 16.8116 15 17.25C15 17.8866 15.3399 18.4438 15.8481 18.75C15.3399 19.0562 15 19.6134 15 20.25C15 20.8644 15.3166 21.4048 15.7956 21.7171C15.739 21.7836 15.6797 21.8499 15.6176 21.9157C15.5437 21.9785 15.4751 22.0473 15.4125 22.1214C14.3362 23.143 12.5303 24 9.5 24C2 24 2 18.75 2 18.75V18.25ZM16.75 16.5C16.3358 16.5 16 16.8358 16 17.25C16 17.6642 16.3358 18 16.75 18H25.25C25.6642 18 26 17.6642 26 17.25C26 16.8358 25.6642 16.5 25.25 16.5H16.75ZM16.75 19.5C16.3358 19.5 16 19.8358 16 20.25C16 20.6642 16.3358 21 16.75 21H25.25C25.6642 21 26 20.6642 26 20.25C26 19.8358 25.6642 19.5 25.25 19.5H16.75ZM16.75 22.5C16.3358 22.5 16 22.8358 16 23.25C16 23.6642 16.3358 24 16.75 24H25.25C25.6642 24 26 23.6642 26 23.25C26 22.8358 25.6642 22.5 25.25 22.5H16.75Z" fill="#212121"/>
</svg>

<svg xmlns="http://www.w3.org/2000/svg" width="28" height="28"><path d="M9.5 14a4.5 4.5 0 1 0 0-9 4.5 4.5 0 0 0 0 9Zm14-3.5a3.5 3.5 0 1 1-7 0 3.5 3.5 0 0 1 7 0ZM2 18.25A2.25 2.25 0 0 1 4.25 16h10.5c.236 0 .464.036.678.104a1.749 1.749 0 0 0 .42 2.646 1.749 1.749 0 0 0-.052 2.967 5.196 5.196 0 0 1-.178.199 1.763 1.763 0 0 0-.206.205C14.336 23.143 12.53 24 9.5 24 2 24 2 18.75 2 18.75v-.5Zm14.75-1.75a.75.75 0 0 0 0 1.5h8.5a.75.75 0 0 0 0-1.5h-8.5Zm0 3a.75.75 0 0 0 0 1.5h8.5a.75.75 0 0 0 0-1.5h-8.5Zm0 3a.75.75 0 0 0 0 1.5h8.5a.75.75 0 0 0 0-1.5h-8.5Z"/></svg>
